!!!COM: Anon.
!!!OTL: Estava bordando
!!!OTL: Romanceiro Folclorico do Brasil
!!!CNT: Brasil
!!!OCY: Brasil
!!!ODT: <1971///
!!!PSR: Irmaos Vitale
!!!PSP: Sao Paulo, Brasil
!!!PDT: 1949///
!!!PPE: Rossini Tavares de Lima
!!!PPG: pages 37-38
!! Romance: Santa Helena Ou Iria
!! Place: Bairro de Campos Eliseos, Capital, Sao Paulo, Brasil
**kern
*clefG2
*k[b-e-a-]
*M3/4
*MM98
4g
=
4g
4g
4g
=
4ee-
4cc
4ee-
=
4dd
4bn
4g
=
4cc
4cc
4g
=
4g
4b-
4a-
=
4g
4d
4e-
=
4f
4g
8.a-
16g
=
4g
4g
4g
=
4g
4b-
4a-
=
4g
4d
4e-
=
4f
4e-
8.d
16d
=
2c
==
*-
